assets/gi/gi-abstract-068.svg

<svg xmlns="http://www.w3.org/2000/svg" width="100%" height="100%" viewBox="-35.84 -35.84 583.68 583.68"><path d="m21,21v70.5c90.8555,0 164.5,73.6445 164.5,164.5s-73.6446,164.5-164.5,164.5v70.5h470v-70.5c-90.8555,0-164.5001-73.6446-164.5001-164.5s73.6446-164.5 164.5001-164.5v-70.5h-470zm235,43.475c18.8719,0 34.075,15.203 34.075,34.075v314.9c0,18.8719-15.2031,34.075-34.075,34.075s-34.075-15.2031-34.075-34.075v-314.9c0-18.8719 15.203-34.075 34.075-34.075zm-235,70.2062v242.6375c66.9945,0 121.3188-54.3243 121.3188-121.3188s-54.3243-121.3187-121.3188-121.3187zm470,0c-66.9945,0-121.3188,54.3243-121.3188,121.3187s54.3243,121.3188 121.3188,121.3188v-242.6375z"/></svg>

<svg xmlns="http://www.w3.org/2000/svg" width="100%" height="100%" viewBox="-35.84 -35.84 583.68 583.68"><path d="M21 21v70.5c90.856 0 164.5 73.644 164.5 164.5S111.855 420.5 21 420.5V491h470v-70.5c-90.856 0-164.5-73.645-164.5-164.5S400.145 91.5 491 91.5V21H21zm235 43.475c18.872 0 34.075 15.203 34.075 34.075v314.9c0 18.872-15.203 34.075-34.075 34.075s-34.075-15.203-34.075-34.075V98.55c0-18.872 15.203-34.075 34.075-34.075zM21 134.681V377.32c66.995 0 121.319-54.325 121.319-121.32S87.995 134.682 21 134.682zm470 0c-66.995 0-121.319 54.324-121.319 121.319S424.006 377.319 491 377.319V134.68z"/></svg>
